icons/folder-divide.svg

<svg xmlns="http://www.w3.org/2000/svg" width="24" height="24" viewBox="0 0 24 24">
  <path d="M11,4 L13,6 L20,6 C21.1045695,6 22,6.8954305 22,8 L22,18 C22,19.1045695 21.1045695,20 20,20 L4,20 C2.8954305,20 2,19.1045695 2,18 L2,6 C2,4.8954305 2.8954305,4 4,4 L11,4 Z M12,15 C11.4477153,15 11,15.4477153 11,16 C11,16.5522847 11.4477153,17 12,17 C12.5522847,17 13,16.5522847 13,16 C13,15.4477153 12.5522847,15 12,15 Z M15,12 L9,12 L8.88337887,12.0067277 C8.38604019,12.0644928 8,12.4871642 8,13 C8,13.5522847 8.44771525,14 9,14 L9,14 L15,14 L15.1166211,13.9932723 C15.6139598,13.9355072 16,13.5128358 16,13 C16,12.4477153 15.5522847,12 15,12 L15,12 Z M12,9 C11.4477153,9 11,9.44771525 11,10 C11,10.5522847 11.4477153,11 12,11 C12.5522847,11 13,10.5522847 13,10 C13,9.44771525 12.5522847,9 12,9 Z"/>
</svg>

<svg xmlns="http://www.w3.org/2000/svg" viewBox="0 0 24 24">
  <path d="m11 4 2 2h7a2 2 0 0 1 2 2v10a2 2 0 0 1-2 2H4a2 2 0 0 1-2-2V6c0-1.1.9-2 2-2h7zm1 11a1 1 0 1 0 0 2 1 1 0 0 0 0-2zm3-3H8.88A1 1 0 0 0 9 14h6.12a1 1 0 0 0-.12-2zm-3-3a1 1 0 1 0 0 2 1 1 0 0 0 0-2z"/>
</svg>
